SVG_Azure_Grouped/Security/Defender for Cloud.svg

<?xml version="1.0" encoding="UTF-8" standalone="no"?>
<!-- Generated by Microsoft Visio, SVG Export Defender for Cloud.svg Page-1 -->

<svg
   xmlns:dc="http://purl.org/dc/elements/1.1/"
   xmlns:cc="http://creativecommons.org/ns#"
   xmlns:rdf="http://www.w3.org/1999/02/22-rdf-syntax-ns#"
   xmlns:svg="http://www.w3.org/2000/svg"
   xmlns="http://www.w3.org/2000/svg"
   xmlns:sodipodi="http://sodipodi.sourceforge.net/DTD/sodipodi-0.dtd"
   xmlns:inkscape="http://www.inkscape.org/namespaces/inkscape"
   width="0.59055257in"
   height="0.78739876in"
   viewBox="0 0 42.519803 56.692998"
   xml:space="preserve"
   class="st4"
   version="1.1"
   id="svg29"
   sodipodi:docname="Defender for Cloud.svg"
   style="font-size:12px;overflow:visible;color-interpolation-filters:sRGB;fill:none;fill-rule:evenodd;stroke-linecap:square;stroke-miterlimit:3"
   inkscape:version="0.92.5 (2060ec1f9f, 2020-04-08)"><metadata
   id="metadata35"><rdf:RDF><cc:Work
       rdf:about=""><dc:format>image/svg+xml</dc:format><dc:type
         rdf:resource="http://purl.org/dc/dcmitype/StillImage" /></cc:Work></rdf:RDF></metadata><defs
   id="defs33" /><sodipodi:namedview
   pagecolor="#ffffff"
   bordercolor="#666666"
   borderopacity="1"
   objecttolerance="10"
   gridtolerance="10"
   guidetolerance="10"
   inkscape:pageopacity="0"
   inkscape:pageshadow="2"
   inkscape:window-width="640"
   inkscape:window-height="480"
   id="namedview31"
   showgrid="false"
   inkscape:zoom="1.7193066"
   inkscape:cx="28.346323"
   inkscape:cy="23.279613"
   inkscape:window-x="0"
   inkscape:window-y="0"
   inkscape:window-maximized="0"
   inkscape:current-layer="svg29" />
	<style
   type="text/css"
   id="style2">
	<![CDATA[
		.st1 {fill:#57a300;stroke:none;stroke-linecap:butt;stroke-width:12.24}
		.st2 {fill:#b8d432;fill-opacity:0.4;stroke:none;stroke-linecap:butt;stroke-width:12.24}
		.st3 {fill:#ffffff;stroke:none;stroke-linecap:butt;stroke-width:12.24}
		.st4 {fill:none;fill-rule:evenodd;font-size:12px;overflow:visible;stroke-linecap:square;stroke-miterlimit:3}
	]]>
	</style>

	<g
   id="g27"
   transform="translate(-12.240156,-12.2413)">
		<title
   id="title4">Page-1</title>
		<g
   id="group16848-1"
   transform="translate(12.24,-34.0157)">
			<title
   id="title6">Defender for Cloud.16848</title>
			<g
   id="group16849-2">
				<title
   id="title8">Sheet.16849</title>
				<g
   id="shape16850-3">
					<title
   id="title10">Sheet.16850</title>
					<path
   d="M 36.18,53.01 C 23.4,51.64 21.26,46.26 21.26,46.26 c 0,0 -2.88,7.07 -21.26,7.07 v 29.04 c 0,3.51 2,6.8 4.76,9.68 6.27,6.51 16.5,10.9 16.5,10.9 0,0 21.26,-9.1 21.26,-20.58 V 53.33 c -2.36,0 -4.47,-0.11 -6.34,-0.32 z"
   class="st1"
   id="path12"
   inkscape:connector-curvature="0"
   style="fill:#57a300;stroke:none;stroke-width:12.23999977;stroke-linecap:butt" />
				</g>
				<g
   id="shape16851-5"
   transform="translate(0,-10.903)">
					<title
   id="title15">Sheet.16851</title>
					<path
   d="m 26.52,75.92 9.66,-12 C 23.4,62.54 21.26,57.16 21.26,57.16 c 0,0 -2.88,7.08 -21.26,7.08 v 29.03 c 0,3.52 2,6.8 4.76,9.68 l 7.14,-8.87 z"
   class="st2"
   id="path17"
   inkscape:connector-curvature="0"
   style="fill:#b8d432;fill-opacity:0.4;stroke:none;stroke-width:12.23999977;stroke-linecap:butt" />
				</g>
				<g
   id="shape16852-7"
   transform="translate(11.8996,-16.4939)">
					<title
   id="title20">Sheet.16852</title>
					<path
   d="m 17.79,90.48 h -1.24 v -4.02 a 7.76871,7.5933 -180 0 0 -1.93,-5.05 c -0.05,-0.05 -0.09,-0.1 -0.13,-0.15 -1.29,-1.35 -3.11,-2.21 -5.13,-2.21 -2.01,0 -3.84,0.86 -5.13,2.21 a 7.76871,7.5933 -180 0 0 -2.07,5.19 v 4.03 H 0.93 A 0.928023,0.907068 -180 0 0 8.17e-4,91.388202 L 0,102.04 c 0,0.5 0.42,0.91 0.93,0.91 h 16.86 a 0.929183,0.908202 -180 0 0 0.929183,-0.9082 L 18.72,91.39 a 0.929183,0.908202 -180 0 0 -0.929183,-0.909336 z m -4.65,0 H 7.32 v 0 H 5.58 v -4.02 c 0,-1.16 0.45,-2.19 1.15,-2.92 0.7,-0.73 1.62,-1.15 2.63,-1.15 1.01,0 1.93,0.42 2.63,1.15 0.17,0.18 0.32,0.37 0.45,0.57 v 0 c 0.44,0.66 0.7,1.46 0.7,2.34 z"
   class="st3"
   id="path22"
   inkscape:connector-curvature="0"
   style="fill:#ffffff;stroke:none;stroke-width:12.23999977;stroke-linecap:butt" />
				</g>
			</g>
		</g>
	</g>
</svg>

<?xml version="1.0" encoding="UTF-8" standalone="no"?>
<!DOCTYPE svg PUBLIC "-//W3C//DTD SVG 1.1//EN" "http://www.w3.org/Graphics/SVG/1.1/DTD/svg11.dtd">
<!-- Generated by Microsoft Visio, SVG Export Defender for Cloud.svg Page-1 -->
<svg xmlns="http://www.w3.org/2000/svg" xmlns:xlink="http://www.w3.org/1999/xlink" xmlns:ev="http://www.w3.org/2001/xml-events"
		width="0.930551in" height="1.42984in" viewBox="0 0 66.9997 102.949" xml:space="preserve" color-interpolation-filters="sRGB"
		class="st4">
	<style type="text/css">
	<![CDATA[
		.st1 {fill:#57a300;stroke:none;stroke-linecap:butt;stroke-width:12.24}
		.st2 {fill:#b8d432;fill-opacity:0.4;stroke:none;stroke-linecap:butt;stroke-width:12.24}
		.st3 {fill:#ffffff;stroke:none;stroke-linecap:butt;stroke-width:12.24}
		.st4 {fill:none;fill-rule:evenodd;font-size:12px;overflow:visible;stroke-linecap:square;stroke-miterlimit:3}
	]]>
	</style>

	<g>
		<title>Page-1</title>
		<g id="group16455-1" transform="translate(12.24,-34.0157)">
			<title>Defender for Cloud.16455</title>
			<g id="group16456-2">
				<title>Sheet.16456</title>
				<g id="shape16457-3">
					<title>Sheet.16457</title>
					<path d="M36.18 53.01 C23.4 51.64 21.26 46.26 21.26 46.26 C21.26 46.26 18.38 53.33 0 53.33 L0 82.37 C0 85.88
								 2 89.17 4.76 92.05 C11.03 98.56 21.26 102.95 21.26 102.95 C21.26 102.95 42.52 93.85 42.52 82.37
								 L42.52 53.33 C40.16 53.33 38.05 53.22 36.18 53.01 Z" class="st1"/>
				</g>
				<g id="shape16458-5" transform="translate(2.15827E-13,-10.903)">
					<title>Sheet.16458</title>
					<path d="M26.52 75.92 L36.18 63.92 C23.4 62.54 21.26 57.16 21.26 57.16 C21.26 57.16 18.38 64.24 0 64.24 L0 93.27
								 C0 96.79 2 100.07 4.76 102.95 L11.9 94.08 L26.52 75.92 Z" class="st2"/>
				</g>
				<g id="shape16459-7" transform="translate(11.8996,-16.4939)">
					<title>Sheet.16459</title>
					<path d="M17.79 90.48 L16.55 90.48 L16.55 86.46 A7.76871 7.5933 -180 0 0 14.62 81.41 C14.57 81.36 14.53 81.31
								 14.49 81.26 C13.2 79.91 11.38 79.05 9.36 79.05 C7.35 79.05 5.52 79.91 4.23 81.26 A7.76871 7.5933
								 -180 0 0 2.16 86.45 L2.16 90.48 L0.93 90.48 a0.928023 0.907068 -180 0 0 -0.929183 0.908202 L0 102.04
								 C0 102.54 0.42 102.95 0.93 102.95 L17.79 102.95 a0.929183 0.908202 -180 0 0 0.929183 -0.908202 L18.72
								 91.39 a0.929183 0.908202 -180 0 0 -0.929183 -0.909336 ZM13.14 90.48 L7.32 90.48 L7.32 90.48 L5.58
								 90.48 L5.58 86.46 C5.58 85.3 6.03 84.27 6.73 83.54 C7.43 82.81 8.35 82.39 9.36 82.39 C10.37 82.39
								 11.29 82.81 11.99 83.54 C12.16 83.72 12.31 83.91 12.44 84.11 L12.44 84.11 C12.88 84.77 13.14 85.57
								 13.14 86.45 L13.14 90.48 Z" class="st3"/>
				</g>
			</g>
		</g>
	</g>
</svg>
